X:464
M:C|
L:1/8
K:D
c|dBAF D2DF|GEGA BEEc|dBAF D2DF|GBAG FDD:|
|:A|dcde gfe^d|e^def gBBd|efga b2ag|faeg fdd:|
|:z|AdBd AdBd|Adfd ceef|AdBd AdBd|Agfe fd d2|AdBd AdBd|

